packages/IcoMoon/src/ParagraphJustifyIcon/index.svg

<svg version="1.1" xmlns="http://www.w3.org/2000/svg" width="16" height="16" viewBox="0 0 16 16">
<path d="M0 1h16v2h-16zM0 4h16v2h-16zM0 7h16v2h-16zM0 10h16v2h-16zM0 13h16v2h-16z"></path>
</svg>

<svg xmlns="http://www.w3.org/2000/svg" viewBox="0 0 16 16">
  <path d="M0 1h16v2H0zm0 3h16v2H0zm0 3h16v2H0zm0 3h16v2H0zm0 3h16v2H0z"/>
</svg>
